X:1
T:Felszállot a páva vármegyeházára
C:Hungarian folk song
Z:Public Domain
L:1/8
M:3/4
K:C
V:1 treble nm="Voice"
%%MIDI program 52
V:1
 d3 c AG | G c3 z2 | d3 c AG | A2 F2 z2 | A3 G FD | C F3 z2 | G3 F DC | F2 D4 |] %8
w: Fel- szál- lott a|pá- va|Vár- me- gye- há-|zá- ra,|Sok sze- gény- le-|gény- nek|sza- ba- du- lá-|sá- ra.-|

